X: 11
M:9/8
L:1/8
K:G
2G3 GFG Bcd|efg agf g2||:d|gag gfe dcB|A2 A ABG FED|
1gag gfe dBd|efg agf g2:|2gag bag afd|efg agf g2z||

